assets/Ferris wheel/Flat/ferris_wheel_flat.svg

<svg width="32" height="32" viewBox="0 0 32 32" fill="none" xmlns="http://www.w3.org/2000/svg">
<path d="M15.7621 13.0634C15.8526 13.0233 15.9472 13.0043 16.0403 13.0044C16.1333 13.0044 16.2278 13.0234 16.3183 13.0636C16.4829 13.1367 16.6044 13.2667 16.6701 13.4202L23.4158 28.6247H26.75C27.1285 28.6247 27.4353 28.9315 27.4353 29.31C27.4353 29.6885 27.1285 29.9953 26.75 29.9953H22.9786C22.9731 29.9953 22.9677 29.9953 22.9622 29.9953H9.10786C9.10244 29.9953 9.09701 29.9953 9.09158 29.9953H6.18005C5.80157 29.9953 5.49475 29.6885 5.49475 29.31C5.49475 28.9315 5.80157 28.6247 6.18005 28.6247H8.65463L15.4102 13.4199C15.4759 13.2664 15.5975 13.1365 15.7621 13.0634ZM10.1544 28.6247H21.9163L16.0396 15.3788L10.1544 28.6247Z" fill="#E1D8EC"/>
<path d="M16.54 4.54004C16.54 4.2639 16.3162 4.04004 16.04 4.04004C15.7639 4.04004 15.54 4.2639 15.54 4.54004V12.4873L9.92371 6.86662C9.72853 6.67128 9.41194 6.67115 9.21661 6.86634C9.02127 7.06153 9.02115 7.37811 9.21633 7.57345L14.8286 13.1901H6.89001C6.61387 13.1901 6.39001 13.4139 6.39001 13.6901C6.39001 13.9662 6.61387 14.1901 6.89001 14.1901H14.8285L9.21633 19.8066C9.02115 20.002 9.02127 20.3185 9.21661 20.5137C9.41194 20.7089 9.72853 20.7088 9.92371 20.5135L15.54 14.8928V22.83C15.54 23.1062 15.7639 23.33 16.04 23.33C16.3162 23.33 16.54 23.1062 16.54 22.83V14.9028L22.1463 20.5135C22.3415 20.7088 22.6581 20.7089 22.8534 20.5137C23.0488 20.3185 23.0489 20.002 22.8537 19.8066L17.2415 14.1901H25.18C25.4562 14.1901 25.68 13.9662 25.68 13.6901C25.68 13.4139 25.4562 13.1901 25.18 13.1901H17.2414L22.8537 7.57345C23.0489 7.37811 23.0488 7.06153 22.8534 6.86634C22.6581 6.67115 22.3415 6.67128 22.1463 6.86662L16.54 12.4773V4.54004Z" fill="#635994"/>
<path d="M16.04 4.84998C11.1578 4.84998 7.20001 8.80778 7.20001 13.69C7.20001 18.5722 11.1578 22.53 16.04 22.53C20.9222 22.53 24.88 18.5722 24.88 13.69C24.88 8.80778 20.9222 4.84998 16.04 4.84998ZM6.20001 13.69C6.20001 8.25549 10.6055 3.84998 16.04 3.84998C21.4745 3.84998 25.88 8.25549 25.88 13.69C25.88 19.1245 21.4745 23.53 16.04 23.53C10.6055 23.53 6.20001 19.1245 6.20001 13.69ZM16.04 16.21C17.4318 16.21 18.56 15.0817 18.56 13.69C18.56 12.2982 17.4318 11.17 16.04 11.17C14.6483 11.17 13.52 12.2982 13.52 13.69C13.52 15.0817 14.6483 16.21 16.04 16.21ZM10.56 13.69C10.56 10.6635 13.0135 8.21002 16.04 8.21002C19.0665 8.21002 21.52 10.6635 21.52 13.69C21.52 16.7165 19.0665 19.17 16.04 19.17C13.0135 19.17 10.56 16.7165 10.56 13.69ZM16.04 7.21002C12.4612 7.21002 9.56001 10.1112 9.56001 13.69C9.56001 17.2688 12.4612 20.17 16.04 20.17C19.6188 20.17 22.52 17.2688 22.52 13.69C22.52 10.1112 19.6188 7.21002 16.04 7.21002Z" fill="#F9C23C"/>
<path d="M16.04 3.6001L18.23 3.75009H18.22V5.28009C18.22 5.82009 17.78 6.26008 17.24 6.26008H14.83C14.29 6.26008 13.85 5.82009 13.85 5.28009V3.75009L16.04 3.6001ZM16.04 23.0001L18.23 23.2501H18.22V24.7801C18.22 25.3201 17.78 25.7601 17.24 25.7601H14.83C14.29 25.7601 13.85 25.3201 13.85 24.7801V23.2501L16.04 23.0001ZM9.96001 19.8601L7.77 19.7001L5.58 19.8601V21.3901C5.58 21.9301 6.02 22.3701 6.56 22.3701H8.97C9.51 22.3701 9.95 21.9301 9.95 21.3901V19.8601H9.96001ZM22.11 19.8601H26.48V21.3901C26.48 21.9301 26.04 22.3701 25.5 22.3701H23.09C22.55 22.3701 22.11 21.9301 22.11 21.3901V19.8601ZM9.96001 6.39011L7.77 6.20009L5.58 6.39011V7.9201C5.58 8.4601 6.02 8.9001 6.56 8.9001H8.97C9.51 8.9001 9.95 8.4601 9.95 7.9201V6.39011H9.96001ZM24.3 6.20008L26.49 6.39011H26.48V7.9201C26.48 8.4601 26.04 8.9001 25.5 8.9001H23.09C22.55 8.9001 22.11 8.4601 22.11 7.9201V6.39011L24.3 6.20008ZM7.38 13.1301L5.19 12.7501L3 13.1301V14.6601C3 15.2001 3.44 15.6401 3.98 15.6401H6.39C6.93 15.6401 7.37001 15.2001 7.37001 14.6601V13.1301H7.38ZM26.88 13.0001L29.07 13.1301H29.06V14.6601C29.06 15.2001 28.62 15.6401 28.08 15.6401H25.67C25.13 15.6401 24.69 15.2001 24.69 14.6601V13.1301L26.88 13.0001Z" fill="#8D65C5"/>
<path d="M14.77 2H17.31C17.82 2 18.23 2.41 18.23 2.92V3.75H13.85V2.92C13.85 2.41 14.26 2 14.77 2ZM14.77 21.49H17.31C17.82 21.49 18.23 21.9 18.23 22.42V23.25H13.85V22.41C13.85 21.9 14.26 21.49 14.77 21.49ZM9.04001 18.11H6.5C5.99 18.11 5.58 18.52 5.58 19.03V19.86H9.96001V19.03C9.96001 18.52 9.55001 18.11 9.04001 18.11ZM23.03 18.11H25.57C26.08 18.11 26.49 18.52 26.49 19.03V19.86H22.11V19.03C22.11 18.52 22.52 18.11 23.03 18.11ZM9.04001 4.64001H6.5C5.99 4.64001 5.58 5.05001 5.58 5.56001V6.39001H9.96001V5.56001C9.96001 5.05001 9.55001 4.64001 9.04001 4.64001ZM23.03 4.64001H25.57C26.08 4.64001 26.49 5.05001 26.49 5.56001V6.39001H22.11V5.56001C22.11 5.05001 22.52 4.64001 23.03 4.64001ZM6.46001 11.37H3.92C3.41 11.37 3 11.78 3 12.29V13.12H7.38V12.29C7.38 11.79 6.97001 11.37 6.46001 11.37ZM25.61 11.37H28.15C28.66 11.37 29.07 11.79 29.07 12.29V13.12H24.69V12.29C24.69 11.78 25.1 11.37 25.61 11.37Z" fill="#D3D3D3"/>
</svg>

<svg xmlns="http://www.w3.org/2000/svg" width="32" height="32" fill="none"><path fill="#E1D8EC" d="M15.762 13.063a.684.684 0 0 1 .908.357l6.746 15.205h3.334a.685.685 0 1 1 0 1.37H6.18a.685.685 0 1 1 0-1.37h2.475L15.41 13.42a.683.683 0 0 1 .352-.357Zm-5.608 15.562h11.762L16.04 15.379l-5.886 13.246Z"/><path fill="#635994" d="M16.54 4.54a.5.5 0 1 0-1 0v7.947l-5.616-5.62a.5.5 0 1 0-.708.706l5.613 5.617H6.89a.5.5 0 1 0 0 1h7.939l-5.613 5.617a.5.5 0 0 0 .708.707l5.616-5.621v7.937a.5.5 0 1 0 1 0v-7.927l5.606 5.61a.5.5 0 0 0 .708-.706L17.24 14.19h7.939a.5.5 0 1 0 0-1h-7.939l5.613-5.617a.5.5 0 1 0-.708-.706l-5.606 5.61V4.54Z"/><path fill="#F9C23C" d="M16.04 4.85a8.84 8.84 0 1 0 0 17.68 8.84 8.84 0 0 0 0-17.68ZM6.2 13.69c0-5.435 4.405-9.84 9.84-9.84 5.434 0 9.84 4.405 9.84 9.84s-4.405 9.84-9.84 9.84c-5.434 0-9.84-4.405-9.84-9.84Zm9.84 2.52a2.52 2.52 0 1 0 0-5.04 2.52 2.52 0 0 0 0 5.04Zm-5.48-2.52a5.48 5.48 0 1 1 10.96 0 5.48 5.48 0 0 1-10.96 0Zm5.48-6.48a6.48 6.48 0 1 0 0 12.96 6.48 6.48 0 0 0 0-12.96Z"/><path fill="#8D65C5" d="m16.04 3.6 2.19.15h-.01v1.53c0 .54-.44.98-.98.98h-2.41c-.54 0-.98-.44-.98-.98V3.75l2.19-.15Zm0 19.4 2.19.25h-.01v1.53c0 .54-.44.98-.98.98h-2.41c-.54 0-.98-.44-.98-.98v-1.53l2.19-.25Zm-6.08-3.14-2.19-.16-2.19.16v1.53c0 .54.44.98.98.98h2.41c.54 0 .98-.44.98-.98v-1.53h.01Zm12.15 0h4.37v1.53c0 .54-.44.98-.98.98h-2.41c-.54 0-.98-.44-.98-.98v-1.53ZM9.96 6.39 7.77 6.2l-2.19.19v1.53c0 .54.44.98.98.98h2.41c.54 0 .98-.44.98-.98V6.39h.01ZM24.3 6.2l2.19.19h-.01v1.53c0 .54-.44.98-.98.98h-2.41c-.54 0-.98-.44-.98-.98V6.39l2.19-.19ZM7.38 13.13l-2.19-.38-2.19.38v1.53c0 .54.44.98.98.98h2.41c.54 0 .98-.44.98-.98v-1.53h.01Zm19.5-.13 2.19.13h-.01v1.53c0 .54-.44.98-.98.98h-2.41c-.54 0-.98-.44-.98-.98v-1.53l2.19-.13Z"/><path fill="#D3D3D3" d="M14.77 2h2.54c.51 0 .92.41.92.92v.83h-4.38v-.83c0-.51.41-.92.92-.92Zm0 19.49h2.54c.51 0 .92.41.92.93v.83h-4.38v-.84c0-.51.41-.92.92-.92Zm-5.73-3.38H6.5c-.51 0-.92.41-.92.92v.83h4.38v-.83c0-.51-.41-.92-.92-.92Zm13.99 0h2.54c.51 0 .92.41.92.92v.83h-4.38v-.83c0-.51.41-.92.92-.92ZM9.04 4.64H6.5c-.51 0-.92.41-.92.92v.83h4.38v-.83c0-.51-.41-.92-.92-.92Zm13.99 0h2.54c.51 0 .92.41.92.92v.83h-4.38v-.83c0-.51.41-.92.92-.92ZM6.46 11.37H3.92c-.51 0-.92.41-.92.92v.83h4.38v-.83c0-.5-.41-.92-.92-.92Zm19.15 0h2.54c.51 0 .92.42.92.92v.83h-4.38v-.83c0-.51.41-.92.92-.92Z"/></svg>
